X:1557a
T:"The Greencastle Hornpipe"   (2nd Setting)     1557
C:after Vince Brennan
B:O'Neill's Music Of Ireland (The 1850) Lyon & Healy, Chicago, 1903 Edition.
N:As learned by the transcriber
B:O'Neill's Music Of Ireland (The 1850) Lyon & Healy, Chicago, 1903 edition
Z:FROM O'NEILL'S TO NOTEWORTHY, FROM NOTEWORTHY TO ABC, MIDI AND .TXT BY VINCE
BRENNAN July 2003 (HTTP://WWW.SOSYOURMOM.COM)
I:abc2nwc
M:C|
L:1/8
K:G
(d3/2c/2)|B3/2G/2D3/2G/2 B3/2G/2D3/2G/2|(3(gag) f3/2g/2 e2(d3/2c/2)|B3/2G/2D3/2G/2 B3/2G/2B3/2d/2|d3/2c/2B3/2c/2 A2(d3/2c/2)|
B3/2G/2D3/2G/2 B3/2G/2D3/2G/2|(3(gag) f3/2g/2 e2(d3/2c/2)|B3/2g/2f3/2g/2 e3/2c/2A3/2F/2|G2G2G2:|
|:(g3/2a/2)|b3/2a/2g3/2f/2 e3/2f/2g3/2a/2|b3/2a/2g3/2f/2 e2 (3(efg)|a3/2g/2f3/2e/2 d3/2e/2f3/2g/2|a3/2g/2f3/2e/2 d2 (3(def)|
g3/2f/2g3/2d/2(3(efg)d3/2B/2|{d}c3/2B/2A3/2B/2c3/2d/2e3/2f/2|g3/2f/2g3/2d/2e3/2c/2A3/2F/2|[1G2G2G2:|[2 (3GBd  (3gdB G2|]


